X:1
T:Polska efter Alfred Pettersson (i G)
O:Nättraby, Blekinge
R:Polska
M:3/4
L:1/16
Z:Andy Davey 2018
K:G
Q:1/4=90
| G2g2 gfge d2d2 | dBGB dcAF G2D2 | B2BG c2cA d2d2 | edcB dcBc A4 | 
| G2g2 gfge d2d2 | dBGB dcAF G2D2 | B2BG c2cA d2d2 |[1 ecAF A4 G4 :|[2 ecAF A4 G2B2 | 
|: AGFE DEFG ABcA | BGDB, G,B,DG BdcB |AGFE DEFG ABcA | BGDB, G,B,DG BdcB | B2cd edec B2GB |[1 dcAF A4 G2B2 :|[2 dcAF A4 G4 |

